assets/people-fill.svg

<svg xmlns="http://www.w3.org/2000/svg" fill="none" viewBox="0 0 28 21">
  <path fill="#2A2238" d="M12.25 21s-1.75 0-1.75-1.75 1.75-7 8.75-7 8.75 4.25 8.75 7v.9509c0 .4418-.3582.7991-.8.7991H12.25Zm7-10.5c1.3924 0 2.7277-.55312 3.7123-1.53769C23.9469 7.97774 24.5 6.64239 24.5 5.25c0-1.39239-.5531-2.72774-1.5377-3.71231C21.9777.553124 20.6424 0 19.25 0c-1.3924 0-2.7277.553124-3.7123 1.53769C14.5531 2.52226 14 3.85761 14 5.25c0 1.39239.5531 2.72774 1.5377 3.71231C16.5223 9.94688 17.8576 10.5 19.25 10.5Z"/>
  <path fill="#2A2238" fill-rule="evenodd" d="M9.128 21c-.25943-.5463-.38881-1.1453-.378-1.75 0-2.3712 1.19-4.8125 3.388-6.51-1.0971-.338-2.24009-.5033-3.388-.49-7 0-8.75 3.8405-8.75 7v.9509C0 20.6427.358172 21 .8 21h8.328Z" clip-rule="evenodd"/>
  <path fill="#2A2238" d="M7.875 10.5c1.16032 0 2.2731-.4609 3.0936-1.28141.8205-.82047 1.2814-1.93327 1.2814-3.09359 0-1.16032-.4609-2.27312-1.2814-3.09359C10.1481 2.21094 9.03532 1.75 7.875 1.75c-1.16032 0-2.27312.46094-3.09359 1.28141C3.96094 3.85188 3.5 4.96468 3.5 6.125c0 1.16032.46094 2.27312 1.28141 3.09359C5.60188 10.0391 6.71468 10.5 7.875 10.5Z"/>
</svg>

<svg width="28" height="21" viewBox="0 0 28 21" fill="none" xmlns="http://www.w3.org/2000/svg">
<path d="M12.25 21C12.25 21 10.5 21 10.5 19.25C10.5 17.5 12.25 12.25 19.25 12.25C26.25 12.25 28 16.5 28 19.25C28 19.6524 28 19.9623 28 20.2009C28 20.6427 27.6418 21 27.2 21H12.25ZM19.25 10.5C20.6424 10.5 21.9777 9.94688 22.9623 8.96231C23.9469 7.97774 24.5 6.64239 24.5 5.25C24.5 3.85761 23.9469 2.52226 22.9623 1.53769C21.9777 0.553124 20.6424 0 19.25 0C17.8576 0 16.5223 0.553124 15.5377 1.53769C14.5531 2.52226 14 3.85761 14 5.25C14 6.64239 14.5531 7.97774 15.5377 8.96231C16.5223 9.94688 17.8576 10.5 19.25 10.5Z" fill="#2A2238"/>
<path fill-rule="evenodd" clip-rule="evenodd" d="M9.128 21C8.86857 20.4537 8.73919 19.8547 8.75 19.25C8.75 16.8788 9.94 14.4375 12.138 12.74C11.0409 12.402 9.89791 12.2367 8.75 12.25C1.75 12.25 0 16.0905 0 19.25C0 19.6524 0 19.9623 0 20.2009C0 20.6427 0.358172 21 0.8 21H9.128Z" fill="#2A2238"/>
<path d="M7.875 10.5C9.03532 10.5 10.1481 10.0391 10.9686 9.21859C11.7891 8.39812 12.25 7.28532 12.25 6.125C12.25 4.96468 11.7891 3.85188 10.9686 3.03141C10.1481 2.21094 9.03532 1.75 7.875 1.75C6.71468 1.75 5.60188 2.21094 4.78141 3.03141C3.96094 3.85188 3.5 4.96468 3.5 6.125C3.5 7.28532 3.96094 8.39812 4.78141 9.21859C5.60188 10.0391 6.71468 10.5 7.875 10.5V10.5Z" fill="#2A2238"/>
</svg>
